X: 0001
T: ToM #1 - The Beautiful Waltz 1
C: A.Lisboa
M:3/4
L:mcm_default
K:C clef=treble
 .E2  (E2  .F2)  |  .G2 (G2  .A2)  |  .B2  (B2  .c2)    |  (e4  .B2)            |  
 (A2  B2  .c2)  |  (d2  e2  .B2) | (c1d1e1c1 .G2) |  ((3G1A1F1  E4)  :|]
 [|: (A2  B2  .c2)  | (d1.e1) d4   | (f1e1 e1d1 c1B1  |  .d2)   c4             | 
 (A2  B2  .c2) | (_A1_B1  c2  .e2) |  g12/2          :|]
[|: .E2  (E2  .F2)  |  .G2  (G2  .A2)  |  .B2  (B2  .c2)    |  (e4  .B2)            |  
 (A2  B2  .c2)  |  (d2  e2  .B2) | (c1d1e1c1 .G2)   |  ((3F1E1D1  C4)  :|]



